!!!OTL: Das Pfaffenlied.
!!!ARE: Europa, Mitteleuropa, Deutschland
!!!SCT: A0476
!!!TXL: @@NDS
!!!YEM: Copyright 1995, estate of Helmut Schaffrath.
**kern	**text
!! Mixed meters:  4/4; 6/4
*M4/4	*
*met(c)	*
*clefC4	*
*k[]	*
*G:ion	*
!LO:TX:a:t=jon. tr. = G dur	!
*	*^
{4G	Es	Er
=1	=1	=1
4G	hat	klo-
4G	ein	-pfet
4G	Bawr	an
4G	ſein	den
=2	=2	=2
4A/	Fraw	Pfarr-
4A/	verlorhn,	-hoff
4A/}	.	an:
{4G	er	'Habt
=3	=3	=3
4B	kundt	ihr
4c	ſie	mein
4d	nim-	Frewlein
4B	-mer	.
=4	=4	=4
2A/	fin-	drinnen?
4G}	-den,}	}
*	*v	*v
=:|	=:|
{4G	Habt
=5	=5
4d	ihr
4d	mein
4d	Frewlein
4c	.
=6	=6
*M6/4	*
8dL	ein-
8cJ	.
4B	-ge-
2A	-than,
4r}	.
{4A	ſo
=7	=7
*M4/4	*
4B	laſt
!LO:TX:a:t=..	!
4B	mir_ſie
8BL	wi-
8cJ	.
4d	-der
=8	=8
4B	herauſſergahn:
4c	.
2G}	.
=9	=9
{4r	.
4G	Laſt
4A/	auß,
4G	laſt
=10	=10
2c	auß!
4r}	.
{4e	ich
=11	=11
4d	darff
4c	ir
8dL	ſel-
8GJ	-ber
4A	im
=12	=12
2G	hauß.'
4r}	.
==	==
!!!GTL: Scherz-, Spott- und Schandlieder
!!!AGN: Romanze, Ballade, Lied
!! Fliegendes Blatt um 1582.
!!!ONB: ESAC (Essen Associative Code) Database: ALTDEU
!!!AMT: irregular
!!!AIN: vox
!!!EED: Helmut Schaffrath
!!!EEV: 1.0
!!!AMD: Ionian
!!!URL-scan: https://rosdok.uni-rostock.de/mcrviewer/recordIdentifier/rosdok_ppn738218359/iview2/phys_0663.iview2?x=-1272.8135649766991&y=534.8526728739962&scale=0.3197610882076923&rotation=0&layout=singlePageLayout&logicalDiv=log_0018
!!!ENC: Anna Maria Matuszewska
!!!EEV: 2024/19/03
*-	*-
